svg/Pictogram/pictograms-nps-misc-cans_or_bottles.svg

<svg xmlns="http://www.w3.org/2000/svg" viewBox="0 0 256 256"><path d="m0 0c-.541 0-.981-.44-.981-.981v-7.52c0-.541.44-.981.981-.981h7.521c.542 0 .982.44.982.981v7.52c0 .541-.44.981-.982.981h-7.521" fill="#fff" transform="matrix(25.89783 0 0-25.89783 30.598 5.242)"/><path d="m0 0c.652 0 1.182.529 1.182 1.182v7.519c0 .653-.53 1.182-1.182 1.182h-7.521c-.653 0-1.182-.529-1.182-1.182v-7.519c0-.653.529-1.182 1.182-1.182h7.521" transform="matrix(25.89783 0 0-25.89783 225.39 256)"/><g fill="#fff"><path d="m0 0c-.068.001-.123.07-.123.141 0 .054.031.099.074.125-.045.025-.074.072-.074.125 0 .08.064.144.144.144h.715c.08 0 .145-.064.145-.144 0-.055-.031-.102-.078-.125.045-.024.078-.071.078-.125 0-.071-.055-.131-.123-.141l.867-2.347c.055-.152.082-.322.082-.492v-4.161c0-.156-.127-.283-.285-.283h-2.088c-.156 0-.283.127-.283.283v4.161c0 .17.027.34.08.492l.869 2.347" transform="matrix(25.89783 0 0-25.89783 165 36.627)"/><path d="m0 0c.018-.016.043-.025.068-.025.059 0 .106.046.106.103 0 .018-.006.035-.014.051l-.117.273c-.027.055-.086.092-.15.092-.094 0-.17-.074-.17-.168 0-.045.017-.086.047-.115l.23-.211m.389-.051c.009-.023.015-.049.015-.074 0-.107-.088-.195-.195-.195-.039 0-.076.013-.107.033l-.471.391c-.051.06-.082.136-.082.222 0 .19.154.344.344.344.14 0 .263-.088.314-.211l.182-.51" transform="matrix(25.89783 0 0-25.89783 61.66 97.86)"/><path d="m0 0c.057 0 .104-.047.104-.104v-.16c0-.056-.047-.102-.104-.102l-.096.004c.116-.073.2-.198.2-.344v-3.498c0-.18-.145-.324-.323-.324h-1.855c-.18 0-.324.144-.324.324l.002 3.498c0 .146.082.271.197.344l-.096-.004c-.057 0-.101.046-.101.102v.16c0 .057.044.104.101.104h2.295" transform="matrix(25.89783 0 0-25.89783 110.82 108.07)"/></g></svg>

<?xml version="1.0" encoding="UTF-8" standalone="no"?>
<!-- Created with Inkscape (http://www.inkscape.org/) -->
<svg
   xmlns:dc="http://purl.org/dc/elements/1.1/"
   xmlns:cc="http://creativecommons.org/ns#"
   xmlns:rdf="http://www.w3.org/1999/02/22-rdf-syntax-ns#"
   xmlns:svg="http://www.w3.org/2000/svg"
   xmlns="http://www.w3.org/2000/svg"
   xmlns:sodipodi="http://sodipodi.sourceforge.net/DTD/sodipodi-0.dtd"
   xmlns:inkscape="http://www.inkscape.org/namespaces/inkscape"
   width="256"
   height="256"
   id="svg5294"
   sodipodi:version="0.32"
   inkscape:version="0.46"
   version="1.0"
   sodipodi:docname="pictograms-nps-misc-cans_or_bottles-2.svg"
   inkscape:output_extension="org.inkscape.output.svg.inkscape">
  <defs
     id="defs5296">
    <inkscape:perspective
       sodipodi:type="inkscape:persp3d"
       inkscape:vp_x="0 : 526.18109 : 1"
       inkscape:vp_y="0 : 1000 : 0"
       inkscape:vp_z="744.09448 : 526.18109 : 1"
       inkscape:persp3d-origin="372.04724 : 350.78739 : 1"
       id="perspective5302" />
  </defs>
  <sodipodi:namedview
     id="base"
     pagecolor="#ffffff"
     bordercolor="#666666"
     borderopacity="1.0"
     gridtolerance="10000"
     guidetolerance="10"
     objecttolerance="10"
     inkscape:pageopacity="0.0"
     inkscape:pageshadow="2"
     inkscape:zoom="0.98994949"
     inkscape:cx="112.80911"
     inkscape:cy="62.857143"
     inkscape:document-units="px"
     inkscape:current-layer="layer1"
     showgrid="false"
     inkscape:window-width="725"
     inkscape:window-height="674"
     inkscape:window-x="1"
     inkscape:window-y="309" />
  <metadata
     id="metadata5299">
    <rdf:RDF>
      <cc:Work
         rdf:about="">
        <dc:format>image/svg+xml</dc:format>
        <dc:type
           rdf:resource="http://purl.org/dc/dcmitype/StillImage" />
      </cc:Work>
    </rdf:RDF>
  </metadata>
  <g
     inkscape:label="Layer 1"
     inkscape:groupmode="layer"
     id="layer1">
    <g
       id="g4750"
       transform="matrix(25.897825,0,0,-25.897825,30.598322,5.2417198)">
      <path
         d="M 0,0 C -0.541,0 -0.981,-0.44 -0.981,-0.981 L -0.981,-8.501 C -0.981,-9.042 -0.541,-9.482 0,-9.482 L 7.521,-9.482 C 8.063,-9.482 8.503,-9.042 8.503,-8.501 L 8.503,-0.981 C 8.503,-0.44 8.063,0 7.521,0 L 0,0 z"
         style="fill:#ffffff;fill-opacity:1;fill-rule:nonzero;stroke:none"
         id="path4752" />
    </g>
    <g
       id="g4754"
       transform="matrix(25.897825,0,0,-25.897825,225.38877,256)">
      <path
         d="M 0,0 C 0.652,0 1.182,0.529 1.182,1.182 L 1.182,8.701 C 1.182,9.354 0.652,9.883 0,9.883 L -7.521,9.883 C -8.174,9.883 -8.703,9.354 -8.703,8.701 L -8.703,1.182 C -8.703,0.529 -8.174,0 -7.521,0 L 0,0 z"
         style="fill:#000000;fill-opacity:1;fill-rule:nonzero;stroke:none"
         id="path4756" />
    </g>
    <g
       id="g4758"
       transform="matrix(25.897825,0,0,-25.897825,164.99506,36.627397)">
      <path
         d="M 0,0 C -0.068,0.01 -0.123,0.07 -0.123,0.141 C -0.123,0.195 -0.092,0.24 -0.049,0.266 C -0.094,0.291 -0.123,0.338 -0.123,0.391 C -0.123,0.471 -0.059,0.535 0.021,0.535 L 0.736,0.535 C 0.816,0.535 0.881,0.471 0.881,0.391 C 0.881,0.336 0.85,0.289 0.803,0.266 C 0.848,0.242 0.881,0.195 0.881,0.141 C 0.881,0.07 0.826,0.01 0.758,0 L 1.625,-2.347 C 1.68,-2.499 1.707,-2.669 1.707,-2.839 L 1.707,-7 C 1.707,-7.156 1.58,-7.283 1.422,-7.283 L -0.666,-7.283 C -0.822,-7.283 -0.949,-7.156 -0.949,-7 L -0.949,-2.839 C -0.949,-2.669 -0.922,-2.499 -0.869,-2.347 L 0,0 z"
         style="fill:#ffffff;fill-opacity:1;fill-rule:nonzero;stroke:none"
         id="path4760" />
    </g>
    <g
       id="g4762"
       transform="matrix(25.897825,0,0,-25.897825,61.655076,97.857521)">
      <path
         d="M 0,0 C 0.018,-0.016 0.043,-0.025 0.068,-0.025 C 0.127,-0.025 0.174,0.021 0.174,0.078 C 0.174,0.096 0.168,0.113 0.16,0.129 L 0.043,0.402 C 0.016,0.457 -0.043,0.494 -0.107,0.494 C -0.201,0.494 -0.277,0.42 -0.277,0.326 C -0.277,0.281 -0.26,0.24 -0.23,0.211 L 0,0 z M 0.389,-0.051 C 0.398,-0.074 0.404,-0.1 0.404,-0.125 C 0.404,-0.232 0.316,-0.32 0.209,-0.32 C 0.17,-0.32 0.133,-0.307 0.102,-0.287 L -0.369,0.104 C -0.42,0.164 -0.451,0.24 -0.451,0.326 C -0.451,0.516 -0.297,0.67 -0.107,0.67 C 0.033,0.67 0.156,0.582 0.207,0.459 L 0.389,-0.051 z"
         style="fill:#ffffff;fill-opacity:1;fill-rule:nonzero;stroke:none"
         id="path4764" />
    </g>
    <g
       id="g4766"
       transform="matrix(25.897825,0,0,-25.897825,110.82206,108.07432)">
      <path
         d="M 0,0 C 0.057,0 0.104,-0.047 0.104,-0.104 L 0.104,-0.264 C 0.104,-0.32 0.057,-0.366 0,-0.366 L -0.096,-0.362 C 0.02,-0.435 0.104,-0.56 0.104,-0.706 L 0.104,-4.204 C 0.104,-4.384 -0.041,-4.528 -0.219,-4.528 L -2.074,-4.528 C -2.254,-4.528 -2.398,-4.384 -2.398,-4.204 L -2.396,-0.706 C -2.396,-0.56 -2.314,-0.435 -2.199,-0.362 L -2.295,-0.366 C -2.352,-0.366 -2.396,-0.32 -2.396,-0.264 L -2.396,-0.104 C -2.396,-0.047 -2.352,0 -2.295,0 L 0,0 z"
         style="fill:#ffffff;fill-opacity:1;fill-rule:nonzero;stroke:none"
         id="path4768" />
    </g>
  </g>
</svg>
